www/assets/images/test_icons/flags/MN.svg

<svg fill="none" height="15" viewBox="0 0 21 15" width="21" xmlns="http://www.w3.org/2000/svg" xmlns:xlink="http://www.w3.org/1999/xlink"><mask id="a" height="15" maskUnits="userSpaceOnUse" width="21" x="0" y="0"><path d="m19 0h-17c-1.10457 0-2 .89543-2 2v11c0 1.1046.89543 2 2 2h17c1.1046 0 2-.8954 2-2v-11c0-1.10457-.8954-2-2-2z" fill="#fff"/></mask><g mask="url(#a)"><path d="m19 0h-17c-1.10457 0-2 .89543-2 2v11c0 1.1046.89543 2 2 2h17c1.1046 0 2-.8954 2-2v-11c0-1.10457-.8954-2-2-2z" fill="#004f99"/><path clip-rule="evenodd" d="m0 0h7v15h-7z" fill="#c62429" fill-rule="evenodd"/><g fill="#fad000"><path clip-rule="evenodd" d="m2 7h1v4h-1zm3 0h1v4h-1z" fill-rule="evenodd"/><path d="m4 11c.55228 0 1-.4477 1-1 0-.55228-.44772-1-1-1s-1 .44772-1 1c0 .5523.44772 1 1 1z"/><path d="m4 8c.55228 0 1-.44772 1-1s-.44772-1-1-1-1 .44772-1 1 .44772 1 1 1z"/><path clip-rule="evenodd" d="m4 3 1 2h-2z" fill-rule="evenodd"/></g><path clip-rule="evenodd" d="m14 0h7v15h-7z" fill="#c62429" fill-rule="evenodd"/><path d="m19 .5h-17c-.82843 0-1.5.67157-1.5 1.5v11c0 .8284.67157 1.5 1.5 1.5h17c.8284 0 1.5-.6716 1.5-1.5v-11c0-.82843-.6716-1.5-1.5-1.5z" stroke="#000" stroke-opacity=".1"/></g></svg>

<svg width="21" height="15" viewBox="0 0 21 15" fill="none" xmlns="http://www.w3.org/2000/svg">
<mask id="mask0_3_93" style="mask-type:alpha" maskUnits="userSpaceOnUse" x="0" y="0" width="21" height="15">
<path d="M19 0H2C0.89543 0 0 0.89543 0 2V13C0 14.1046 0.89543 15 2 15H19C20.1046 15 21 14.1046 21 13V2C21 0.89543 20.1046 0 19 0Z" fill="white"/>
</mask>
<g mask="url(#mask0_3_93)">
<path d="M19 0H2C0.89543 0 0 0.89543 0 2V13C0 14.1046 0.89543 15 2 15H19C20.1046 15 21 14.1046 21 13V2C21 0.89543 20.1046 0 19 0Z" fill="#004F99"/>
<path fill-rule="evenodd" clip-rule="evenodd" d="M0 0H7V15H0V0Z" fill="#C62429"/>
<path fill-rule="evenodd" clip-rule="evenodd" d="M2 7H3V11H2V7ZM5 7H6V11H5V7Z" fill="#FAD000"/>
<path d="M4 11C4.55228 11 5 10.5523 5 10C5 9.44772 4.55228 9 4 9C3.44772 9 3 9.44772 3 10C3 10.5523 3.44772 11 4 11Z" fill="#FAD000"/>
<path d="M4 8C4.55228 8 5 7.55228 5 7C5 6.44772 4.55228 6 4 6C3.44772 6 3 6.44772 3 7C3 7.55228 3.44772 8 4 8Z" fill="#FAD000"/>
<path fill-rule="evenodd" clip-rule="evenodd" d="M4 3L5 5H3L4 3Z" fill="#FAD000"/>
<path fill-rule="evenodd" clip-rule="evenodd" d="M14 0H21V15H14V0Z" fill="#C62429"/>
<path d="M19 0.5H2C1.17157 0.5 0.5 1.17157 0.5 2V13C0.5 13.8284 1.17157 14.5 2 14.5H19C19.8284 14.5 20.5 13.8284 20.5 13V2C20.5 1.17157 19.8284 0.5 19 0.5Z" stroke="black" stroke-opacity="0.1"/>
</g>
</svg>
